symbols/web/hdr_off_select/materialsymbolsoutlined/hdr_off_select_wght100_40px.svg

<svg xmlns="http://www.w3.org/2000/svg" height="40" width="40"><path d="m27.25 15.958-.792-.75q.167-.5.23-.979.062-.479.062-.979 0-2.792-2-4.771T20 6.5q-.542 0-1.062.083-.521.084-.855.167l-.75-.75q.5-.208 1.209-.354Q19.25 5.5 20 5.5q3.25 0 5.5 2.25t2.25 5.5q0 .667-.125 1.375t-.375 1.333Zm.292 6.25-2.792-2.833q-.917.75-2.104 1.167-1.188.416-2.646.416-3.25 0-5.5-2.229t-2.25-5.479q0-1.292.396-2.5t1.229-2.25l-2.833-2.708.708-.834 16.5 16.5Zm-3.5-3.541-9.459-9.5q-.666.958-1 2-.333 1.041-.333 2.083 0 2.792 2 4.75 2 1.958 4.75 1.958 1.208 0 2.167-.291.958-.292 1.875-1Zm10.875 17.208v-3.333h-3.334v-1.084h3.334v-3.333H36v3.333h3.333v1.084H36v3.333ZM22.458 36v-8.75H27q1.042 0 1.729.688.688.687.688 1.729v.416q0 .667-.438 1.375-.437.709-1.479 1.042l1.542 3.5h-1.167l-1.5-3.375h-2.833V36Zm1.084-4.458H27q.5 0 .917-.417.416-.417.416-.917v-.541q0-.5-.416-.917-.417-.417-.917-.417h-3.458ZM.667 36v-8.75h1.041v3.375h4.834V27.25h1.041V36H6.542v-4.292H1.708V36Zm10.875 0v-8.75h4.541q.959 0 1.667.708.708.709.708 1.709v3.958q0 .958-.708 1.667-.708.708-1.667.708Zm1.083-1.042h3.458q.5 0 .917-.416.417-.417.417-.917v-3.958q0-.5-.417-.917-.417-.417-.917-.417h-3.458Z"/></svg>

<svg xmlns="http://www.w3.org/2000/svg" height="40" width="40"><path d="M27.25 15.958 26.458 15.208Q26.625 14.708 26.688 14.229Q26.75 13.75 26.75 13.25Q26.75 10.458 24.75 8.479Q22.75 6.5 20 6.5Q19.458 6.5 18.938 6.583Q18.417 6.667 18.083 6.75L17.333 6Q17.833 5.792 18.542 5.646Q19.25 5.5 20 5.5Q23.25 5.5 25.5 7.75Q27.75 10 27.75 13.25Q27.75 13.917 27.625 14.625Q27.5 15.333 27.25 15.958ZM27.542 22.208 24.75 19.375Q23.833 20.125 22.646 20.542Q21.458 20.958 20 20.958Q16.75 20.958 14.5 18.729Q12.25 16.5 12.25 13.25Q12.25 11.958 12.646 10.75Q13.042 9.542 13.875 8.5L11.042 5.792L11.75 4.958L28.25 21.458ZM24.042 18.667 14.583 9.167Q13.917 10.125 13.583 11.167Q13.25 12.208 13.25 13.25Q13.25 16.042 15.25 18Q17.25 19.958 20 19.958Q21.208 19.958 22.167 19.667Q23.125 19.375 24.042 18.667ZM34.917 35.875V32.542H31.583V31.458H34.917V28.125H36V31.458H39.333V32.542H36V35.875ZM22.458 36V27.25H27Q28.042 27.25 28.729 27.938Q29.417 28.625 29.417 29.667V30.083Q29.417 30.75 28.979 31.458Q28.542 32.167 27.5 32.5L29.042 36H27.875L26.375 32.625H23.542V36ZM23.542 31.542H27Q27.5 31.542 27.917 31.125Q28.333 30.708 28.333 30.208V29.667Q28.333 29.167 27.917 28.75Q27.5 28.333 27 28.333H23.542ZM0.667 36V27.25H1.708V30.625H6.542V27.25H7.583V36H6.542V31.708H1.708V36ZM11.542 36V27.25H16.083Q17.042 27.25 17.75 27.958Q18.458 28.667 18.458 29.667V33.625Q18.458 34.583 17.75 35.292Q17.042 36 16.083 36ZM12.625 34.958H16.083Q16.583 34.958 17 34.542Q17.417 34.125 17.417 33.625V29.667Q17.417 29.167 17 28.75Q16.583 28.333 16.083 28.333H12.625Z"/></svg>
